X:1
T:Flash Gals of the Town
M:4/4
L:1/4
K:F
 C3/2 C/2| F F F F| A2 A A| G F E D| C2- C3/2 c/2| c2 c3/2 c/2| c A B c|\
 B3 G3/4 A/4| B3/2 B/2 B A| G2 G F| E F E E| B,3 B,| C C C C| C C D E|\
 F2||
